static/assets/svg/human/humanClothes/female_shirt2_stickers/female_shirt2_sticker10.svg

<svg class="shirtOverlay" width="86" height="380" viewBox="202.715 584.407 86.593 380.048" xmlns="http://www.w3.org/2000/svg"><defs id="svgEditorDefs"><style></style></defs><g id="g7862-2-2-8" transform="matrix(.13372 .2707 -.2939 .3695 -218.293 410.1)" fill="#dcf575"><path id="path7842-0-7-4" d="M1960.388-639.364l-17.922 8.575-12.166.343-27.863-7.203 3.139-1.143 26.163 6.402 1.047-1.6-21.976-6.174 3.662-1.144 21.977 6.632 2.092-1.372-18.837-6.632 3.925-1.143 19.36 6.631 3.924-.914-18.052-6.86 2.616-1.601 18.315 7.318 3.139-1.373-17.005-7.317 4.971-.915 14.913 7.204 2.354-.801-14.977-7.775 2.419-.8 14.848 7.832 3.008-.915-14.259-7.774 2.42-.858 14.128 7.832 3.14-.686-13.146-8.118 3.074-1.029 12.427 7.775 3.01-1.201-13.213-7.889 3.27-1.143 13.473 8.232 2.747-1.143-13.605-7.661 3.01-1.486 13.735 8.232 3.662-1.143-15.697-7.775 3.271-.915 15.305 7.318 3.793-1.029-16.221-6.632 3.009-.8 16.352 6.288 2.878-1.372-16.352-5.716 3.009-1.487 16.613 6.403 2.355-1.143-14.913-5.488 3.009-1.258 14.52 6.06 2.616-.686-14.783-5.831 2.617-1.144 14.52 5.946 2.485-1.029-14.258-5.488 2.879-1.144 14.39 5.717 3.139-1.143-14.65-5.26 2.092-.8 14.913 5.374 2.485-1.144-14.258-5.03 2.747-.915 13.997 4.916 3.336-.914-14.715-4.802 2.289-1.144 14.847 5.088 2.813-.857-14.716-4.974 2.354-.972 14.586 4.802 2.936-1.192-15.355-4.608 2.868-1.132 15.54 4.689 2.59-1.051-14.985-4.365 2.405-1.051 15.263 4.527 2.312-1.051-14.892-4.366 2.405-1.051 15.17 4.447 2.312-.809-15.076-4.608 2.22-1.132 15.077 4.528 2.682-.809-15.17-4.608 1.943-.889 15.17 4.446 1.48-.889-14.615-4.204 2.96-1.375 17.02 5.66z"/><path id="path7842-7-5-2-6" d="M2125.517-651.319l15.75-8.416 10.636-.235 8.66-1.589 21.283 7.475-1.997 1.191-15.354-5.186-2.858.634 14.544 4.923-2.755 1.116-22.801-6.634-.93 1.593 19.145 6.367-3.214 1.111-19.139-6.826-1.843 1.354 16.396 6.797-3.443 1.109-16.854-6.803-3.439.88 15.708 7.02-2.302 1.577-15.931-7.479-2.758 1.344 14.788 7.468-4.354.87-12.96-7.334-2.067.779 13.012 7.907-2.122.779-12.898-7.963-2.639.888 12.384 7.901-2.123.836-12.269-7.957-2.751.659 11.408 8.233-2.697 1.002-10.782-7.884-2.641 1.173 11.467 8.007-2.871 1.113-11.691-8.35-2.413 1.118 11.813 7.781-2.645 1.459-11.92-8.353-3.213 1.111 13.642 7.913-2.868.886-13.302-7.452-3.327.995 14.111 6.774-2.637.774-14.227-6.432-2.53 1.346 14.234 5.861-2.645 1.46-14.455-6.55-2.07 1.123 12.978 5.619-2.642 1.231-12.63-6.187-2.292.662 12.86 5.962-2.298 1.12-12.631-6.073-2.182 1.007 12.406 5.613-2.528 1.118-12.517-5.843-2.756 1.116 12.751 5.388-1.836.782-12.979-5.506-2.185 1.122 12.412 5.156-2.411.89-12.182-5.04-2.925.886 12.813 4.932-2.012 1.123-12.925-5.219-2.468.832 12.812 5.104-2.067.951-12.7-4.931-2.577 1.166 13.373 4.744-2.519 1.107-13.533-4.827-2.274 1.028 13.051 4.498-2.112 1.03-13.293-4.662-2.031 1.03 12.971 4.498-2.113 1.03-13.213-4.581-2.03.788 13.13 4.741-1.95 1.112-13.131-4.659-2.353.784 13.212 4.742-1.707.872-13.213-4.581-1.302.876 12.73 4.333-2.601 1.349-14.818-5.81z" transform="matrix(.9568 .05951 -.14553 1.0361 -1.172 -102.416)"/></g><path id="path4113" d="M237.37 734.852l3.105-11.079 3.018 8.72 2.588-11.22 3.487 6.354 1.682-10.869 3.194 5.019 1.268-9.154 1.703 1.719-.045-2.44-2.077-2.04-1.271 8.052-3.326-5.226-1.79 10.045-2.843-7.01-2.635 11.03-3.12-8.08-2.942 11.595-2.532-9.251-.34 3.592 2.876 10.243z" transform="rotate(21.063 245.954 722.357)" fill="#dcf575"/></svg>

<svg class="shirtOverlay" width="86" height="380" viewBox="202.715 584.407 86.5933 380.048" preserveAspectRatio="xMidYMid meet" xmlns="http://www.w3.org/2000/svg">
  <defs id="svgEditorDefs">
    <path id="svgEditorClosePathDefs" class="skin" fill="black" style="stroke-width: 0px; stroke: none;"/>
    <pattern id="pattern-0" x="0" y="0" width="20" height="20" patternUnits="userSpaceOnUse" viewBox="0 0 100 100">
      <g transform="matrix(0.295833, 0, 0, 0.29898, -6.290777, -23.716879)">
        <g id="layer1" transform="matrix(1, 0, 0, 1, -69.339996, -197.330002)">
          <g id="g4009" transform="matrix(1, 0, 0, 1, 26.658001, 102.75)"/>
        </g>
      </g>
    </pattern>
    <style type="text/css">
   
    .fil3 {fill:#FEFEFE}
    .fil4 {fill:#FFF688}
    .fil0 {fill:#FCF4A7}
    .fil11 {fill:url(#id0)}
    .fil10 {fill:url(#id1)}
    .fil1 {fill:url(#id2)}
    .fil12 {fill:url(#id3)}
    .fil13 {fill:url(#id4)}
    .fil9 {fill:url(#id5)}
    .fil14 {fill:url(#id6)}
    .fil6 {fill:url(#id7)}
    .fil7 {fill:url(#id8)}
    .fil5 {fill:url(#id9)}
    .fil8 {fill:url(#id10)}
    .fil2 {fill:url(#id11)}
   
  </style>
  </defs>
  <g id="g7862-2-2-8" transform="matrix(0.133724, 0.270698, -0.293907, 0.369503, -218.293213, 410.099976)">
    <path id="path7842-0-7-4" style="fill: rgb(220, 245, 117);" d="M 1960.388 -639.364 L 1942.466 -630.789 L 1930.3 -630.446 L 1902.437 -637.649 L 1905.576 -638.792 L 1931.739 -632.39 L 1932.786 -633.99 L 1910.81 -640.164 L 1914.472 -641.308 L 1936.449 -634.676 L 1938.541 -636.048 L 1919.704 -642.68 L 1923.629 -643.823 L 1942.989 -637.192 L 1946.913 -638.106 L 1928.861 -644.966 L 1931.477 -646.567 L 1949.792 -639.249 L 1952.931 -640.622 L 1935.926 -647.939 L 1940.897 -648.854 L 1955.81 -641.65 L 1958.164 -642.451 L 1943.187 -650.226 L 1945.606 -651.026 L 1960.454 -643.194 L 1963.462 -644.109 L 1949.203 -651.883 L 1951.623 -652.741 L 1965.751 -644.909 L 1968.891 -645.595 L 1955.745 -653.713 L 1958.819 -654.742 L 1971.246 -646.967 L 1974.256 -648.168 L 1961.043 -656.057 L 1964.313 -657.2 L 1977.786 -648.968 L 1980.533 -650.111 L 1966.928 -657.772 L 1969.938 -659.258 L 1983.673 -651.026 L 1987.335 -652.169 L 1971.638 -659.944 L 1974.909 -660.859 L 1990.214 -653.541 L 1994.007 -654.57 L 1977.786 -661.202 L 1980.795 -662.002 L 1997.147 -655.714 L 2000.025 -657.086 L 1983.673 -662.802 L 1986.682 -664.289 L 2003.295 -657.886 L 2005.65 -659.029 L 1990.737 -664.517 L 1993.746 -665.775 L 2008.266 -659.715 L 2010.882 -660.401 L 1996.099 -666.232 L 1998.716 -667.376 L 2013.236 -661.43 L 2015.721 -662.459 L 2001.463 -667.947 L 2004.342 -669.091 L 2018.732 -663.374 L 2021.871 -664.517 L 2007.221 -669.777 L 2009.313 -670.577 L 2024.226 -665.203 L 2026.711 -666.347 L 2012.453 -671.377 L 2015.2 -672.292 L 2029.197 -667.376 L 2032.533 -668.29 L 2017.818 -673.092 L 2020.107 -674.236 L 2034.954 -669.148 L 2037.767 -670.005 L 2023.051 -674.979 L 2025.405 -675.951 L 2039.991 -671.149 L 2042.927 -672.341 L 2027.572 -676.949 L 2030.44 -678.081 L 2045.98 -673.392 L 2048.57 -674.443 L 2033.585 -678.808 L 2035.99 -679.859 L 2051.253 -675.332 L 2053.565 -676.383 L 2038.673 -680.749 L 2041.078 -681.8 L 2056.248 -677.353 L 2058.56 -678.162 L 2043.484 -682.77 L 2045.704 -683.902 L 2060.781 -679.374 L 2063.463 -680.183 L 2048.293 -684.791 L 2050.236 -685.68 L 2065.406 -681.234 L 2066.886 -682.123 L 2052.271 -686.327 L 2055.231 -687.702 L 2072.251 -682.042 Z" transform="matrix(1, 0, 0, 1, -0.000015, -0.00008)"/>
    <path id="path7842-7-5-2-6" d="M 2125.517 -651.319 L 2141.267 -659.735 L 2151.903 -659.97 L 2160.563 -661.559 L 2181.846 -654.084 L 2179.849 -652.893 L 2164.495 -658.079 L 2161.637 -657.445 L 2176.181 -652.522 L 2173.426 -651.406 L 2150.625 -658.04 L 2149.695 -656.447 L 2168.84 -650.08 L 2165.626 -648.969 L 2146.487 -655.795 L 2144.644 -654.441 L 2161.04 -647.644 L 2157.597 -646.535 L 2140.743 -653.338 L 2137.304 -652.458 L 2153.012 -645.438 L 2150.71 -643.861 L 2134.779 -651.34 L 2132.021 -649.996 L 2146.809 -642.528 L 2142.455 -641.658 L 2129.495 -648.992 L 2127.428 -648.213 L 2140.44 -640.306 L 2138.318 -639.527 L 2125.42 -647.49 L 2122.781 -646.602 L 2135.165 -638.701 L 2133.042 -637.865 L 2120.773 -645.822 L 2118.022 -645.163 L 2129.43 -636.93 L 2126.733 -635.928 L 2115.951 -643.812 L 2113.31 -642.639 L 2124.777 -634.632 L 2121.906 -633.519 L 2110.215 -641.869 L 2107.802 -640.751 L 2119.615 -632.97 L 2116.97 -631.511 L 2105.05 -639.864 L 2101.837 -638.753 L 2115.479 -630.84 L 2112.611 -629.954 L 2099.309 -637.406 L 2095.982 -636.411 L 2110.093 -629.637 L 2107.456 -628.863 L 2093.229 -635.295 L 2090.699 -633.949 L 2104.933 -628.088 L 2102.288 -626.628 L 2087.833 -633.178 L 2085.763 -632.055 L 2098.741 -626.436 L 2096.099 -625.205 L 2083.469 -631.392 L 2081.177 -630.73 L 2094.037 -624.768 L 2091.739 -623.648 L 2079.108 -629.721 L 2076.926 -628.714 L 2089.332 -623.101 L 2086.804 -621.983 L 2074.287 -627.826 L 2071.531 -626.71 L 2084.282 -621.322 L 2082.446 -620.54 L 2069.467 -626.046 L 2067.282 -624.924 L 2079.694 -619.768 L 2077.283 -618.878 L 2065.101 -623.918 L 2062.176 -623.032 L 2074.989 -618.1 L 2072.977 -616.977 L 2060.052 -622.196 L 2057.584 -621.364 L 2070.396 -616.26 L 2068.329 -615.309 L 2055.629 -620.24 L 2053.052 -619.074 L 2066.425 -614.33 L 2063.906 -613.223 L 2050.373 -618.05 L 2048.099 -617.022 L 2061.15 -612.524 L 2059.038 -611.494 L 2045.745 -616.156 L 2043.714 -615.126 L 2056.685 -610.628 L 2054.572 -609.598 L 2041.359 -614.179 L 2039.329 -613.391 L 2052.459 -608.65 L 2050.509 -607.538 L 2037.378 -612.197 L 2035.025 -611.413 L 2048.237 -606.671 L 2046.53 -605.799 L 2033.317 -610.38 L 2032.015 -609.504 L 2044.745 -605.171 L 2042.144 -603.822 L 2027.326 -609.632 Z" style="fill: rgb(220, 245, 117);" transform="matrix(0.956807, 0.059513, -0.145528, 1.036091, -1.171775, -102.416064)"/>
  </g>
  <path id="path4113" d="M 237.37 734.852 L 240.475 723.773 L 243.493 732.493 L 246.081 721.273 L 249.568 727.627 L 251.25 716.758 L 254.444 721.777 L 255.712 712.623 L 257.415 714.342 L 257.37 711.902 L 255.293 709.862 L 254.022 717.914 L 250.696 712.688 L 248.906 722.733 L 246.063 715.723 L 243.428 726.753 L 240.308 718.673 L 237.366 730.268 L 234.834 721.017 L 234.494 724.609 L 237.37 734.852 Z" style="fill: rgb(220, 245, 117);" transform="matrix(0.933183, 0.359402, -0.359402, 0.933183, 276.050457, -40.130694)"/>
</svg>
